assets/icon-nut-free.svg

<svg
  class="icon icon-accordion icon-nut-free"

  focusable="false"
  xmlns="http://www.w3.org/2000/svg"


  viewBox="0 0 20 20"
>
  <path d="M8.38041 11.5855L2.5155 15.5063L1.95973 14.675L7.82464 10.7542L8.38041 11.5855Z" />
  <path d="M17.6981 5.08643L11.8332 9.00726L11.2774 8.17593L17.1424 4.25509L17.6981 5.08643Z" />
  <path d="M6.13399 9.34115C6.80574 10.0344 7.66191 10.4557 8.28602 10.5914C8.40535 10.6174 8.51106 10.6861 8.5832 10.7847C8.70288 10.9482 8.80546 11.0846 8.89607 11.2051C9.04851 11.4078 9.16711 11.5655 9.2764 11.7315C9.46109 12.0119 9.6332 12.3328 9.95101 12.9745C10.4796 14.0417 11.4698 14.339 11.8528 14.4362C12.4756 14.5687 12.9843 14.6365 13.3964 14.6349C13.8107 14.6334 14.0932 14.5618 14.2896 14.4469C14.6434 14.2399 14.9175 13.76 14.9175 12.5471C14.9175 11.6522 14.5765 10.8589 14.0942 10.2599C13.6042 9.65156 13.0036 9.28557 12.5348 9.1946C11.3967 8.97378 10.7812 8.27648 10.5969 7.84891C10.4593 7.53894 10.1866 7.07083 9.87896 6.62103C9.5679 6.16616 9.26103 5.78894 9.06123 5.61912C8.45551 5.15102 8.02652 5.00866 7.42372 4.90607C6.29733 4.71437 5.79753 4.88276 5.55066 5.1071C5.28632 5.34732 5.14585 5.79122 5.09075 6.56826C5.00813 7.73344 5.47224 8.65824 6.13399 9.34115ZM5.41583 10.037C4.59647 9.19146 3.98677 7.99933 4.09325 6.49754C4.14909 5.71003 4.29708 4.89505 4.87814 4.36703C5.47667 3.82312 6.37921 3.71392 7.5915 3.92024C8.33035 4.04599 8.92081 4.24475 9.68194 4.835C9.68684 4.8388 9.69167 4.84269 9.69642 4.84667C10.0093 5.10851 10.3844 5.58865 10.7044 6.05655C11.0305 6.53334 11.3407 7.05887 11.5124 7.44641L11.5151 7.45267C11.5652 7.57005 11.9047 8.0537 12.7253 8.21291C13.4827 8.35987 14.2758 8.89112 14.873 9.63272C15.4779 10.3838 15.9175 11.3932 15.9175 12.5471C15.9175 13.8345 15.6375 14.8169 14.7946 15.31C14.3928 15.5451 13.9164 15.633 13.4001 15.6349C12.8836 15.6368 12.293 15.5526 11.635 15.4122C11.6291 15.4109 11.6232 15.4095 11.6172 15.4081C11.1791 15.2976 9.79283 14.9082 9.0549 13.4183C8.73742 12.7773 8.58886 12.5057 8.44122 12.2815C8.34723 12.1387 8.25749 12.0196 8.1243 11.8429C8.05736 11.7541 7.97945 11.6507 7.88452 11.5224C7.10236 11.3107 6.16389 10.809 5.41583 10.037Z" />
  <path d="M10 18.4998C14.6944 18.4998 18.5 14.6942 18.5 9.99976C18.5 5.30534 14.6944 1.49976 10 1.49976C5.30558 1.49976 1.5 5.30534 1.5 9.99976C1.5 14.6942 5.30558 18.4998 10 18.4998ZM10 19.4998C15.2467 19.4998 19.5 15.2465 19.5 9.99976C19.5 4.75305 15.2467 0.499756 10 0.499756C4.75329 0.499756 0.5 4.75305 0.5 9.99976C0.5 15.2465 4.75329 19.4998 10 19.4998Z" fill-rule="evenodd" />
</svg>

<svg xmlns="http://www.w3.org/2000/svg" class="icon icon-accordion icon-nut-free" viewBox="0 0 20 20"><path d="m8.38 11.586-5.865 3.92-.555-.831 5.865-3.92zM17.698 5.086l-5.865 3.921-.556-.831 5.865-3.92z"/><path d="M6.134 9.341c.672.693 1.528 1.115 2.152 1.25a.5.5 0 0 1 .297.194c.12.163.222.3.313.42.153.203.271.36.38.527.185.28.357.6.675 1.243.529 1.067 1.519 1.364 1.902 1.461.623.133 1.131.2 1.543.199.415-.002.697-.073.894-.188.353-.207.628-.687.628-1.9 0-.895-.341-1.688-.824-2.287-.49-.608-1.09-.974-1.56-1.065-1.137-.221-1.753-.919-1.937-1.346-.138-.31-.41-.778-.718-1.228-.311-.455-.618-.832-.818-1.002-.605-.468-1.034-.61-1.637-.713-1.127-.192-1.626-.023-1.873.201-.265.24-.405.684-.46 1.461-.083 1.165.381 2.09 1.043 2.773m-.718.696c-.82-.846-1.43-2.038-1.323-3.54.056-.787.204-1.602.785-2.13.599-.544 1.501-.653 2.714-.447.738.126 1.329.325 2.09.915l.014.012c.313.262.688.742 1.008 1.21.326.476.637 1.002.808 1.39l.003.006c.05.117.39.6 1.21.76.758.147 1.55.678 2.148 1.42a4.65 4.65 0 0 1 1.045 2.914c0 1.287-.28 2.27-1.123 2.763-.402.235-.879.323-1.395.325s-1.107-.082-1.765-.223l-.018-.004c-.438-.11-1.824-.5-2.562-1.99-.318-.64-.466-.912-.614-1.136a8 8 0 0 0-.317-.44l-.24-.32c-.782-.211-1.72-.713-2.468-1.485"/><path fill-rule="evenodd" d="M10 18.5a8.5 8.5 0 1 0 0-17 8.5 8.5 0 0 0 0 17m0 1a9.5 9.5 0 1 0 0-19 9.5 9.5 0 0 0 0 19"/></svg>
